themes/2023/icons/jetbrains/go.svg

<?xml version="1.0" encoding="UTF-8"?>
<!-- Generated by Pixelmator Pro 3.3.8 -->
<svg width="16" height="16" viewBox="0 0 16 16" xmlns="http://www.w3.org/2000/svg">
    <g id="Group" opacity="0.804398">
        <path id="Path" fill="#3fb6df" fill-rule="evenodd" stroke="none" d="M 12.093307 8.912039 C 12.067538 8.607424 12.047923 8.275499 12.047923 7.923193 C 12.047923 6.640884 12.285615 4.5555 12.285615 4.5555 C 12.285615 2.59973 10.499846 1.000115 7.999846 1.000115 C 5.499846 1.000115 3.714462 2.59973 3.714462 4.5555 C 3.714462 4.5555 3.952154 6.384346 3.952154 7.923193 C 3.952154 8.29973 3.936 8.622423 3.914462 8.912039 L 3.924077 8.912039 C 3.861385 10.149346 3.714462 11.2905 3.714462 11.2905 C 3.714462 13.246269 5.499846 14.84627 7.999846 14.84627 C 10.499846 14.84627 12.285615 13.246269 12.285615 11.2905 C 12.285615 11.2905 12.146 10.062808 12.081 8.912039 L 12.093307 8.912039 Z"/>
        <path id="path1" fill="#3fb6df" fill-rule="evenodd" stroke="none" d="M 13 3.179423 C 13 3.675192 12.626923 4.076731 12.166538 4.076731 C 11.706538 4.076731 11.333462 3.675192 11.333462 3.179423 C 11.333462 2.683654 11.706538 2.282115 12.166538 2.282115 C 12.626923 2.282115 13 2.683654 13 3.179423 M 3 3.179423 C 3 3.675192 3.373077 4.076731 3.833462 4.076731 C 4.293462 4.076731 4.666538 3.675192 4.666538 3.179423 C 4.666538 2.683654 4.293462 2.282115 3.833462 2.282115 C 3.373077 2.282115 3 2.683654 3 3.179423"/>
        <path id="path2" fill="#ffffff" fill-rule="evenodd" stroke="none" d="M 7.743462 5.077885 C 7.743462 5.91404 7.054615 6.59173 6.205 6.59173 C 5.355385 6.59173 4.666538 5.91404 4.666538 5.077885 C 4.666538 4.241732 5.355385 3.564038 6.205 3.564038 C 7.054615 3.564038 7.743462 4.241732 7.743462 5.077885"/>
        <path id="path3" fill="#ffffff" fill-rule="evenodd" stroke="none" d="M 7.743462 5.077885 C 7.743462 5.91404 7.054615 6.59173 6.205 6.59173 C 5.355385 6.59173 4.666538 5.91404 4.666538 5.077885 C 4.666538 4.241732 5.355385 3.564038 6.205 3.564038 C 7.054615 3.564038 7.743462 4.241732 7.743462 5.077885"/>
        <path id="path4" fill="#000000" fill-rule="evenodd" stroke="none" d="M 6.993384 5.073385 C 6.993384 5.481846 6.685692 5.813385 6.306077 5.813385 C 5.926847 5.813385 5.619154 5.481846 5.619154 5.073385 C 5.619154 4.664923 5.926847 4.333385 6.306077 4.333385 C 6.685692 4.333385 6.993384 4.664923 6.993384 5.073385"/>
        <path id="path5" fill="#ffffff" fill-rule="evenodd" stroke="none" d="M 11.137384 5.077885 C 11.137384 5.91404 10.448538 6.59173 9.598923 6.59173 C 8.748923 6.59173 8.060461 5.91404 8.060461 5.077885 C 8.060461 4.241732 8.748923 3.564038 9.598923 3.564038 C 10.448538 3.564038 11.137384 4.241732 11.137384 5.077885"/>
        <path id="path6" fill="#000000" fill-rule="evenodd" stroke="none" d="M 10.386961 5.073385 C 10.386961 5.481846 10.079269 5.813385 9.700039 5.813385 C 9.320423 5.813385 9.012731 5.481846 9.012731 5.073385 C 9.012731 4.664923 9.320423 4.333385 9.700039 4.333385 C 10.079269 4.333385 10.386961 4.664923 10.386961 5.073385"/>
        <path id="path7" fill="#ffffff" fill-rule="evenodd" stroke="none" d="M 7.523 7.923 L 8.476 7.923 L 8.476 7.153999 L 7.523 7.153999 Z"/>
        <path id="path8" fill="#b7937f" fill-rule="evenodd" stroke="none" d="M 8.952538 6.8975 C 8.952538 7.180576 8.526 7.410192 7.999846 7.410192 C 7.474077 7.410192 7.047538 7.180576 7.047538 6.8975 C 7.047538 6.614424 7.474077 6.384808 7.999846 6.384808 C 8.526 6.384808 8.952538 6.614424 8.952538 6.8975"/>
        <path id="path9" fill="#000000" fill-rule="evenodd" stroke="none" d="M 8.476269 6.6325 C 8.476269 6.920577 8.259731 6.8975 7.992038 6.8975 C 7.724731 6.8975 7.507808 6.920577 7.507808 6.6325 C 7.507808 6.344423 7.724731 6.111345 7.992038 6.111345 C 8.259731 6.111345 8.476269 6.344423 8.476269 6.6325"/>
        <path id="path10" fill="#b7937f" stroke="none" d="M 13 8.271077 C 13 8.624924 12.733461 8.91223 12.404615 8.91223 C 12.076154 8.91223 11.809231 8.624924 11.809231 8.271077 C 11.809231 7.917231 12.076154 7.629923 12.404615 7.629923 C 12.733461 7.629923 13 7.917231 13 8.271077 M 4.190654 8.271077 C 4.190654 8.624924 3.924115 8.91223 3.595269 8.91223 C 3.266808 8.91223 2.999885 8.624924 2.999885 8.271077 C 2.999885 7.917231 3.266808 7.629923 3.595269 7.629923 C 3.924115 7.629923 4.190654 7.917231 4.190654 8.271077 M 12.000154 14.205 C 12.000154 14.559231 11.733615 14.846153 11.404769 14.846153 C 11.076307 14.846153 10.809385 14.559231 10.809385 14.205 C 10.809385 13.851154 11.076307 13.564231 11.404769 13.564231 C 11.733615 13.564231 12.000154 13.851154 12.000154 14.205 M 5.1905 14.205 C 5.1905 14.559231 4.923962 14.846153 4.595116 14.846153 C 4.266654 14.846153 3.999731 14.559231 3.999731 14.205 C 3.999731 13.851154 4.266654 13.564231 4.595116 13.564231 C 4.923962 13.564231 5.1905 13.851154 5.1905 14.205"/>
    </g>
</svg>

<svg xmlns="http://www.w3.org/2000/svg" width="16" height="16" viewBox="0 0 16 16"><rect id="frame" width="16" height="16" fill="none"/><g fill="none" fill-rule="evenodd"><path fill="#77BBE2" d="M12.093 8.912a11.686 11.686 0 0 1-.045-.989c0-1.282.238-3.368.238-3.368C12.286 2.6 10.5 1 8 1 5.5 1 3.714 2.6 3.714 4.556c0 0 .238 1.828.238 3.367 0 .377-.016.7-.038.989h.01c-.063 1.237-.21 2.379-.21 2.379 0 1.955 1.786 3.555 4.286 3.555 2.5 0 4.286-1.6 4.286-3.555 0 0-.14-1.228-.205-2.379h.012z"/><path fill="#77BBE2" d="M13 3.18c0 .495-.373.897-.833.897-.46 0-.834-.402-.834-.898 0-.495.374-.897.834-.897.46 0 .833.402.833.897m-10 0c0 .496.373.898.833.898.46 0 .834-.402.834-.898 0-.495-.374-.897-.834-.897-.46 0-.833.402-.833.897"/><path fill="#FFF" d="M7.743 5.078c0 .836-.688 1.514-1.538 1.514-.85 0-1.538-.678-1.538-1.514s.688-1.514 1.538-1.514c.85 0 1.538.678 1.538 1.514"/><path fill="#FFF" d="M7.743 5.078c0 .836-.688 1.514-1.538 1.514-.85 0-1.538-.678-1.538-1.514s.688-1.514 1.538-1.514c.85 0 1.538.678 1.538 1.514"/><path fill="#000" d="M6.993 5.073c0 .409-.307.74-.687.74-.38 0-.687-.331-.687-.74 0-.408.308-.74.687-.74.38 0 .687.332.687.74"/><path fill="#FFF" d="M11.137 5.078c0 .836-.688 1.514-1.538 1.514-.85 0-1.539-.678-1.539-1.514S8.75 3.564 9.6 3.564s1.538.678 1.538 1.514"/><path fill="#000" d="M10.387 5.073c0 .409-.308.74-.687.74-.38 0-.687-.331-.687-.74 0-.408.307-.74.687-.74.38 0 .687.332.687.74"/><path fill="#FFF" d="M7.523 7.923h.953v-.769h-.953z"/><path fill="#B7937F" d="M8.953 6.897c0 .284-.427.513-.953.513s-.952-.23-.952-.513c0-.283.426-.512.952-.512s.953.23.953.513"/><path fill="#000" d="M8.476 6.633c0 .288-.216.264-.484.264-.267 0-.484.024-.484-.264 0-.289.217-.522.484-.522.268 0 .484.233.484.522"/><path fill="#B7937F" fill-rule="nonzero" d="M13 8.271c0 .354-.267.641-.595.641-.329 0-.596-.287-.596-.64 0-.355.267-.642.596-.642.328 0 .595.287.595.641m-8.81 0c0 .354-.266.641-.595.641-.328 0-.595-.287-.595-.64 0-.355.267-.642.595-.642.33 0 .596.287.596.641M12 14.205c0 .354-.267.641-.596.641-.329 0-.596-.287-.596-.641 0-.354.267-.64.596-.64.329 0 .595.286.595.64m-6.81 0c0 .354-.266.641-.595.641-.328 0-.595-.287-.595-.641 0-.354.267-.64.595-.64.329 0 .596.286.596.64"/></g></svg>
